T: Nova Scotia Barn Dance, The
M: 4/4
L: 1/8
K: Amaj
|:c>d|e>fe>c A>ce>a|g2 f2 f2 B>c|d>ed>c B>cd>e|f2 e2 c2 c>d|e>fe>c A>ce>a|g2 f2 b3 a|g>ag>f e>dc>B|1 A2 c2 A2:|2 A2 c2 A3|||:e|c2 e2 e>^de>f|e2 d2 d>cB>c|d2 f2 f>^ef>g|f2 e2 c3 d|e2 f2 g2 a2|1 a2 g2 g>fg>a|g2 f2 f>^ef>g|(3fgf e2 e3:|2 b2 a2 f3 a|g>ag>f e>dc>B|A2 c2 A2||
